icon-svg/extension-uk.svg

<svg xmlns="http://www.w3.org/2000/svg" viewBox="0 0 24 24"><path fill="#44739e" d="M3.077 6.079c-.016-.186-.405-.277-.61-.64a.35.35 0 0 1-.023-.258c.048-.189.275-.284.374-.315.587-.182 1.147-.383 1.739-.546a5.1 5.1 0 0 0 1.797-.74c.428-.318.951-1.298.856-1.452-.054-.088-.428-.009-.45.166a1.19 1.19 0 0 1-.551.864 4 4 0 0 1-1.747.798 10 10 0 0 0-1.983.633.85.85 0 0 0-.477.629.6.6 0 0 0 .071.331 1.5 1.5 0 0 0 .769.737Zm3.021.478-.105-.072-.79.605Zm-1.282.954.443.334a.13.13 0 0 0 .142.006l1.308-.812a.12.12 0 0 0 0-.2l-.434-.3a.13.13 0 0 0-.136 0l-.044.018.366.254.079.242-1.158.712-.51-.377c-.057-.044.026-.079.089-.116L5.2 7.09l-.376.222a.12.12 0 0 0-.008.199m.705-2.594L3.114 6.47a.462.462 0 0 0-.032.754l15.721 12.162a.46.46 0 0 0 .599-.027l2.281-2.12a.464.464 0 0 0-.038-.711L6.049 4.934a.46.46 0 0 0-.528-.017m.853 4.238-.526-.407.347-.244.5.384Zm13.212 6.676.939.719-.299.285-.952-.737Zm-.554.471.942.721-.299.286-.952-.738Zm-.626.533.939.72-.299.284-.952-.737Zm-.628.555.94.719-.299.285-.951-.738Zm-2.455-4.447.316.257-.508.417-.336-.261Zm-.819 1.769.499.384-.319.268-.525-.407Zm-1.63-1.232.499.383-.318.268-.526-.408Zm-1.027-3.11.316.257-.508.417-.337-.261Zm-.959 1.661.499.384-.318.267-.526-.407Zm-1.524-1.153.5.384-.319.268-.525-.408Zm-.719-2.841.311.255-.55.381-.336-.259Zm-.49 1.891-.318.268-.526-.408.342-.243Zm-1.589-3.78.676.478a.193.193 0 0 1-.008.319L5.197 8.237a.19.19 0 0 1-.22-.01l-.69-.53a.192.192 0 0 1 .018-.317l2.05-1.24a.2.2 0 0 1 .211.008m12.888 13.379a.55.55 0 0 1-.708.031L2.732 7.171l-.007 2.096 16.189 12.641 2.711-2.596.375-2.148Z"/></svg>

<?xml version="1.0" encoding="UTF-8"?>
<svg width="24px" fill="#44739e" height="24px" viewBox="0 0 24 24" version="1.1" xmlns="http://www.w3.org/2000/svg" xmlns:xlink="http://www.w3.org/1999/xlink">
            <path d="M 3.077,6.139 C 3.061,5.953 2.671,5.861 2.466,5.498 A 0.35,0.35 0 0 1 2.443,5.239 C 2.491,5.05 2.718,4.955 2.818,4.924 3.405,4.742 3.966,4.54 4.559,4.377 a 5.1,5.1 0 0 0 1.8,-0.741 C 6.788,3.317 7.311,2.336 7.216,2.182 7.162,2.094 6.788,2.173 6.766,2.348 A 1.189,1.189 0 0 1 6.214,3.213 3.978,3.978 0 0 1 4.464,4.013 10.135,10.135 0 0 0 2.478,4.647 0.85,0.85 0 0 0 2,5.276 0.624,0.624 0 0 0 2.071,5.608 1.505,1.505 0 0 0 2.842,6.346 Z M 6.103,6.618 5.997,6.545 5.206,7.151 Z M 4.819,7.573 5.262,7.908 A 0.127,0.127 0 0 0 5.404,7.914 L 6.714,7.1 a 0.12,0.12 0 0 0 0,-0.2 L 6.28,6.6 a 0.126,0.126 0 0 0 -0.136,0 L 6.1,6.618 6.466,6.872 6.545,7.114 5.385,7.827 4.875,7.45 C 4.818,7.406 4.901,7.371 4.964,7.334 L 5.203,7.151 4.827,7.374 A 0.119,0.119 0 0 0 4.819,7.573 Z M 5.525,4.975 3.114,6.53 A 0.463,0.463 0 0 0 3.082,7.286 l 15.745,12.18 a 0.462,0.462 0 0 0 0.6,-0.027 l 2.285,-2.123 A 0.465,0.465 0 0 0 21.673,16.604 L 6.053,4.992 A 0.464,0.464 0 0 0 5.525,4.975 Z M 6.379,9.22 5.852,8.812 6.2,8.568 6.7,8.952 Z m 13.232,6.686 0.941,0.72 -0.3,0.285 -0.953,-0.738 z M 19.056,16.378 20,17.1 19.7,17.386 18.747,16.647 Z m -0.627,0.533 0.941,0.721 -0.3,0.285 -0.953,-0.738 z m -0.628,0.556 0.941,0.72 -0.3,0.286 -0.952,-0.739 z m -2.459,-4.454 0.316,0.258 -0.509,0.417 -0.336,-0.261 z m -0.821,1.772 0.5,0.385 -0.319,0.268 -0.526,-0.408 z m -1.632,-1.234 0.5,0.384 -0.319,0.268 -0.527,-0.408 z m -1.029,-3.115 0.317,0.258 -0.509,0.417 -0.337,-0.261 z m -0.96,1.664 0.5,0.385 -0.319,0.267 -0.527,-0.408 z M 9.374,10.945 9.874,11.33 9.555,11.598 9.029,11.19 Z M 8.653,8.1 8.965,8.355 8.414,8.737 8.078,8.477 Z M 8.163,9.994 7.844,10.262 7.317,9.854 7.66,9.61 Z M 6.571,6.208 7.248,6.687 A 0.193,0.193 0 0 1 7.24,7.006 L 5.2,8.3 A 0.189,0.189 0 0 1 4.98,8.29 L 4.289,7.759 A 0.192,0.192 0 0 1 4.307,7.442 L 6.36,6.2 A 0.2,0.2 0 0 1 6.571,6.208 Z M 19.479,19.607 A 0.548,0.548 0 0 1 18.77,19.639 L 2.731,7.232 l -0.007,2.1 16.214,12.66 2.715,-2.6 0.376,-2.151 z"/>

</svg>
